ui/StatusQ/src/assets/img/icons/communities/notifications-muted.svg

<svg fill="none" height="24" viewBox="0 0 24 24" width="24" xmlns="http://www.w3.org/2000/svg"><g fill="#000"><path d="m2.7072 20.5058c-.39052-.3905-.39052-1.0237 0-1.4142l16.9706-16.97058c.3905-.39053 1.0237-.39053 1.4142 0 .3905.39052.3905 1.02369 0 1.41421l-16.97059 16.97057c-.39052.3905-1.02369.3905-1.41421 0z"/><path clip-rule="evenodd" d="m8.64188 18.8138c-.06865.0687-.02003.1861.07707.1861.33629 0 .57791.3279.54661.6627-.01005.1075-.01554.22-.01554.3373 0 1.3889 1.20638 2.75 2.74998 2.75 1.5437 0 2.75-1.3611 2.75-2.75 0-.1173-.0055-.2298-.0155-.3373-.0313-.3348.2103-.6627.5466-.6627h3.1978c1.7363 0 2.6478-2.0606 1.4799-3.3454l-1.1769-1.2945c-.5107-.5618-.851-1.2574-.9811-2.0054l-.1524-.8763c-.1041-.5986-.8395-.8315-1.2692-.4018-.1726.1726-.2504.4184-.2086.6588l.1524.8764c.1789 1.0285.6468 1.9848 1.349 2.7573l1.1769 1.2945c.292.3212.0641.8364-.37.8364h-8.2124c-.1989 0-.38968.079-.53034.2196zm2.39722.2074-.005.0052.0032-.0032zm.045-.0213c-.0159 0-.0315.0073-.0425.0188-.0029.0033-.0095.0113-.0197.0249-.023.0307-.0609.0863-.1011.1667-.0791.1583-.1708.4191-.1708.7896 0 .611.5845 1.25 1.25 1.25s1.25-.639 1.25-1.25c0-.3705-.0917-.6313-.1708-.7896-.0402-.0804-.0781-.136-.1011-.1667-.0101-.0136-.0172-.022-.0201-.0254-.011-.0115-.0261-.0183-.042-.0183z" fill-rule="evenodd"/><path d="m14.9585 4.01192c-.3003.3003-.788.28027-1.1402.04295-.5223-.352-1.1499-.55501-1.8183-.55501-1.5828 0-2.93632 1.13842-3.20753 2.69786l-.8056 4.63218c-.02105.121-.07895.2326-.1658.3194l-1.35541 1.3554c-.10186.1019-.29116-.0081-.26648-.1501l1.11547-6.41389c.39616-2.27792 2.37325-3.94085 4.68535-3.94085 1.0994 0 2.1231.37598 2.937 1.01527.3162.24833.3058.7125.0215.99679z"/></g></svg>

<svg width="24" height="24" viewBox="0 0 24 24" fill="none" xmlns="http://www.w3.org/2000/svg">
<path d="M2.7072 20.5058C2.31668 20.1153 2.31668 19.4821 2.7072 19.0916L19.6778 2.12102C20.0683 1.73049 20.7015 1.73049 21.092 2.12102C21.4825 2.51154 21.4825 3.14471 21.092 3.53523L4.12141 20.5058C3.73089 20.8963 3.09772 20.8963 2.7072 20.5058Z" fill="black"/>
<path fill-rule="evenodd" clip-rule="evenodd" d="M8.64188 18.8138C8.57323 18.8825 8.62185 18.9999 8.71895 18.9999C9.05524 18.9999 9.29686 19.3278 9.26556 19.6626C9.25551 19.7701 9.25002 19.8826 9.25002 19.9999C9.25002 21.3888 10.4564 22.7499 12 22.7499C13.5437 22.7499 14.75 21.3888 14.75 19.9999C14.75 19.8826 14.7445 19.7701 14.7345 19.6626C14.7032 19.3278 14.9448 18.9999 15.2811 18.9999H18.4789C20.2152 18.9999 21.1267 16.9393 19.9588 15.6545L18.7819 14.36C18.2712 13.7982 17.9309 13.1026 17.8008 12.3546L17.6484 11.4783C17.5443 10.8797 16.8089 10.6468 16.3792 11.0765C16.2066 11.2491 16.1288 11.4949 16.1706 11.7353L16.323 12.6117C16.5019 13.6402 16.9698 14.5965 17.672 15.369L18.8489 16.6635C19.1409 16.9847 18.913 17.4999 18.4789 17.4999H10.2665C10.0676 17.4999 9.87682 17.5789 9.73616 17.7195L8.64188 18.8138ZM11.0391 19.0212L11.0341 19.0264L11.0373 19.0232L11.0391 19.0212ZM11.0841 18.9999C11.0682 18.9999 11.0526 19.0072 11.0416 19.0187C11.0387 19.022 11.0321 19.03 11.0219 19.0436C10.9989 19.0743 10.961 19.1299 10.9208 19.2103C10.8417 19.3686 10.75 19.6294 10.75 19.9999C10.75 20.6109 11.3345 21.2499 12 21.2499C12.6655 21.2499 13.25 20.6109 13.25 19.9999C13.25 19.6294 13.1583 19.3686 13.0792 19.2103C13.039 19.1299 13.0011 19.0743 12.9781 19.0436C12.968 19.03 12.9609 19.0216 12.958 19.0182C12.947 19.0067 12.9319 18.9999 12.916 18.9999H11.0841Z" fill="black"/>
<path d="M14.9585 4.01192C14.6582 4.31222 14.1705 4.29219 13.8183 4.05487C13.296 3.70287 12.6684 3.49986 12 3.49986C10.4172 3.49986 9.06368 4.63828 8.79247 6.19772L7.98687 10.8299C7.96582 10.9509 7.90792 11.0625 7.82107 11.1493L6.46566 12.5047C6.3638 12.6066 6.1745 12.4966 6.19918 12.3546L7.31465 5.94071C7.71081 3.66279 9.6879 1.99986 12 1.99986C13.0994 1.99986 14.1231 2.37584 14.937 3.01513C15.2532 3.26346 15.2428 3.72763 14.9585 4.01192Z" fill="black"/>
</svg>
